hero/solid/queue-list.svg

<svg width="24" height="24" viewBox="0 0 24 24" fill="none" xmlns="http://www.w3.org/2000/svg">
<path d="M5.625 3.75C4.17525 3.75 3 4.92525 3 6.375C3 7.82475 4.17525 9 5.625 9H18.375C19.8247 9 21 7.82475 21 6.375C21 4.92525 19.8247 3.75 18.375 3.75H5.625Z" fill="#0F172A"/>
<path d="M3.75 11.25C3.33579 11.25 3 11.5858 3 12C3 12.4142 3.33579 12.75 3.75 12.75H20.25C20.6642 12.75 21 12.4142 21 12C21 11.5858 20.6642 11.25 20.25 11.25H3.75Z" fill="#0F172A"/>
<path d="M3 15.75C3 15.3358 3.33579 15 3.75 15H20.25C20.6642 15 21 15.3358 21 15.75C21 16.1642 20.6642 16.5 20.25 16.5H3.75C3.33579 16.5 3 16.1642 3 15.75Z" fill="#0F172A"/>
<path d="M3.75 18.75C3.33579 18.75 3 19.0858 3 19.5C3 19.9142 3.33579 20.25 3.75 20.25H20.25C20.6642 20.25 21 19.9142 21 19.5C21 19.0858 20.6642 18.75 20.25 18.75H3.75Z" fill="#0F172A"/>
</svg>

<svg viewBox="0 0 24 24" xmlns="http://www.w3.org/2000/svg"><path d="M5.625 3.75v0c-1.45 0-2.63 1.17-2.625 2.625C3 7.81 4.17 9 5.62 9h12.75v0c1.44 0 2.625-1.18 2.625-2.625 0-1.45-1.18-2.625-2.625-2.625H5.62Zm-1.88 7.5v0c-.42 0-.75.33-.75.75 0 .41.33.75.75.75h16.5v0c.41 0 .75-.34.75-.75 0-.42-.34-.75-.75-.75H3.74Zm-.75 4.5v0c0-.42.33-.75.75-.75h16.5v0c.41 0 .75.33.75.75 0 .41-.34.75-.75.75H3.74v0c-.42 0-.75-.34-.75-.75Zm.75 3v0c-.42 0-.75.33-.75.75 0 .41.33.75.75.75h16.5v0c.41 0 .75-.34.75-.75 0-.42-.34-.75-.75-.75H3.74Z"/></svg>
